X:27
T:Reel 27
M:4/4
K:Dmaj
L:1/8
AG|FDCD A,G,G,>C|A,DDF DFAd||FDD (3B,CD A,>C (3CB,C |FGFG FE (3EDE :||2FA (3dcd cABG|FDEC D2D2|AG (3GFG ABcd| (3edc dB cAAG|FGFG  (3AFG AF|GECE C2DG| (3FGF AF cFdF| (3cBA AG FGA2| (3GFE =cG G2EC|DDEC DCG,B,|
